X:1
T:Title
%%score { ( 1 3 ) | 2 }
L:1/8
M:3/4
K:Ab
V:1 treble nm="Grand Piano"
V:3 treble 
V:2 bass 
V:1
 z2 z[Q:1/4=94] [CE] [CE][CA] | [Ec]3 [Fd] [DB][Ec] | [CA]3 [CA] [CA][EG] | [DF]3 [EG] [FA][FB] | %4
[M:3/8] [=Ec]3 | ccd |[M:3/4] e3 c [EB][EA] | [Fd]3 c BA | G3 A Bc |[M:9/16] [CEA]4- [CEA]/ | %10
[M:3/8] ccc |[M:3/4] c6- | c4 z2 | A6- | A4 z2 | B3 B AB | c3 c cd | e3 c [EB][EA] | %18
 [DF]3 [FA] [EG]F | E3 A cB |[M:9/16] [CA]4- [CA]/ |] %21
V:2
 z2 z [A,,A,] [A,,A,][A,,A,] | [A,,A,]3 [A,,A,] [E,G,][E,G,] | [A,,A,]3 [A,,A,] [A,,A,][C,A,] | %3
 [D,A,]3 [D,A,] [D,A,][D,F,] |[M:3/8] [C,G,]3 | [A,E][A,E][A,B,E] | %6
[M:3/4] [A,CE]3 [A,E] [C,A,][C,A,] | [D,A,]3 [A,E] [A,D][A,C] | [E,B,E]3 [E,CE] [E,DE][E,E] | %9
[M:9/16] [A,,A,]4- [A,,A,]/ |[M:3/8] z3 |[M:3/4] z2 z [C,G,] [C,G,][C,G,] | [F,A,]4 z2 | %13
 z2 z [D,D] [D,D][D,D] | A,,3 A,, [E,B,E][E,CE] | [E,DE]3 [E,DE] [E,CE][E,DE] | %16
 [A,E]3 [A,E] [A,E][A,B,E] | [A,CE]3 [A,E] [C,A,][C,A,] | [D,A,]3 [D,A,] [D,A,][D,A,D] | %19
 [E,A,C]3 [E,A,C] [E,A,E][E,G,D] |[M:9/16] [A,,A,]4- [A,,A,]/ |] %21
V:3
 x6 | x6 | x6 | x6 |[M:3/8] x3 | x3 |[M:3/4] x6 | x6 | x6 |[M:9/16] x9/2 |[M:3/8] x3 | %11
[M:3/4] z2 z =E EE | F3 A AA | z2 z F FF | [CE]3 [CEA] GA | x6 | x6 | x6 | x6 | x6 | %20
[M:9/16] x9/2 |] %21

